!!!!SEGMENT: pl-wtm--r-2008--001-003_smietanski-emil-wladyslaw--trois-mazourkas-op-2-nr-3.krn
!!!cenid: 18xx:1988
!!!COM: Śmietański, Emil Władysław
!!!COM-rismID: pe50041781
!!!CDT: 1845-1886
!!!CNT: Polish
!!!GTL: Trois Mazourkas op. 2
!!!OTL: [Nr 3]
!!!OMV: 003
!!!PDT: 1865
!!!AGN: Secular; Mazurka
!!!SMS-siglum: PL-Wtm
!!!SMS-shelfmark: R 2008
!!!SMS-shelfwork: 001-003 G
!!!SMS-variant:
!!!SMS-altvar:
!!!NIFC-rismSourceID: 1001112201
!!!NIFC-rismChildID: 1001112204
!!!NIFC-islandoraID: pl-wtm:29379
!!!URL-pdf-islandora: https://repozytorium.nifc.pl/islandora/object/pl-wtm%3A29379/datastream/PDF/view
!!!URL-scan: https://polish.musicsources.pl/pl/lokalizacje/galeria/rekopisy/6501 @EN{Scan on Polish Music Sources Website} @PL{Skany w portalu Dziedzictwo Muzyki Polskiej w otwartym dostępie}
!!!IIIF:
!!!ONB-nifc:
!!!AIN: 1 forte
!!!key:
**kern	**kern	**dynam
*part1	*part1	*part1
*staff2	*staff1	*
*Iforte	*Iforte	*
*I"Fortepian	*I"Fortepian	*
*I'pf	*I'pf	*
*clefF4	*clefG2	*
*k[f#]	*k[f#]	*
*G:	*G:	*
*M3/4	*M3/4	*
=1	=1	=1
!	!LO:N:vis=8	!
4GG/	8.g\L	.
!	!	!LO:DY:rj
.	16b\J	p
*clefG2	*	*
4b 4g\	4dd\	.
.	32qqee/	.
4b 4g 4f#\	8dd\L	.
.	8cc#X\J	.
=2	=2	=2
4b 4g 4fn\	8.dd\L	.
.	16b\Jk	.
4b 4g 4e\	4g\	.
4b 4g 4e-X\	4gg\	.
=3	=3	=3
4b 4g 4d\	8.g\L	.
.	16b\Jk	.
4b-X 4g 4d\	4dd\	.
.	32qqee/	.
4a 4g 4d\	8dd\L	.
.	8cc#X\J	.
*clefF4	*	*
=4	=4	=4
4D\	8.dd\L	.
.	16ccn\Jk	.
4f#X 4c\	4a\	.
4F#\	4b\	.
=5	=5	=5
8GL 8GG/	8g/L	ff
8F#J 8FF#/	8f#X/J	.
4D 4DD/	4d/	.
4E 4EE/	4e/	.
=6	=6	=6
2BB 2BBB/	2B/	.
4E 4EE/	4e/	.
=7	=7	=7
8DL 8DD/	8d/L	.
8C#XJ 8CC#X/	8c#X/J	.
4BB 4BBB/	4B/	.
4AA 4AAA/	4A/	.
=8	=8	=8
4D 4DD/	2d/	.
*clefG2	*	*
4cc 4f#\	.	.
4r	4dd\	.
*clefF4	*	*
=9	=9	=9
4GG\	8.g\L	p
.	16b\Jk	.
*clefG2	*	*
4b 4g\	4dd\	.
.	32qqee/	.
4b 4g 4f#\	8dd\L	.
.	8cc#X\J	.
!!LO:LB:g=original
=10	=10	=10
4b 4g 4fn\	8.dd\L	.
.	16b\Jk	.
4b 4g 4e\	4g\	.
4b 4g 4e-X\	4gg\	.
=11	=11	=11
4b 4g 4d\	8.g\L	.
.	16b\Jk	.
4b-X 4g 4d\	4dd\	.
.	32qqee/	.
4a 4g 4d\	8dd\L	.
.	8cc#X\J	.
*clefF4	*	*
=12	=12	=12
4D\	8.dd\L	.
.	16ccn\Jk	.
4f# 4c\	4a\	.
4F#\	4b\	.
=13	=13	=13
8GL 8GG/	8g\L	ff
8F#J 8FF#/	8f#\J	.
4D 4DD/	4d\	.
4E 4EE/	4e\	.
=14	=14	=14
2BB 2BBB/	2B/	.
8EL 8EE/	8e/L	.
8DJ 8DD/	8d/J	.
=15	=15	=15
8CL 8CC/	8c/L	.
8BBJ 8BBB/	8B/J	.
4AA 4AAA/	4A/	.
4BB 4BBB/	4B/	.
=16	=16	=16
4GG 4GGG/	4G/	.
8b 8d 8G\	8gg 8dd 8g\	.
8r	8r	.
4r	4d\	.
=17	=17	=17
4GGG/	8.g\L	ff
!	!LO:N:vis=8	!
.	16b\Jk	.
!	!LO:TX:b:i:t=sempre	!
4g 4d 4B 4G\	4dd\	.
.	32qqee/	.
4f# 4d 4B 4G 4F#\	8dd\L	.
.	8cc#X\J	.
=18	=18	=18
4fn 4d 4B 4G 4Fn\	8dd\L	.
.	8b\J	.
4e 4B 4G 4E\	4g\	.
4e-X 4B 4G 4E-X\	4gg\	.
!!LO:LB:g=original
=19	=19	=19
4d 4B 4G 4D\	8g\L	.
.	8b\J	.
4d 4B-X 4G 4D\	4dd\	.
.	32qqee/	.
4d 4A 4G 4D\	8dd\L	.
.	8cc#X\J	.
=20	=20	=20
4DD/	8dd\L	.
.	8ccn\J	.
4c 4F#\	4a\	.
4D\	4b\	.
=21	=21	=21
4GG 4GGG/	8g\L	.
.	8b\J	.
4g 4d 4B 4G\	4dd\	.
.	32qqee/	.
4f# 4d 4B 4G 4F#\	8dd\L	.
.	8cc#X\J	.
=22	=22	=22
4fn 4d 4B 4G 4Fn\	8dd\L	.
.	8b\J	.
4e 4B 4G 4E\	4g\	.
4e-X 4B 4G 4E-X\	4gg\	.
=23	=23	=23
4d 4B 4G 4D\	8g\L	.
.	8b\J	.
4d 4B-X 4G 4D\	4dd\	.
.	32qqee/	.
4d 4A 4G 4D\	8dd\L	.
.	8cc#X\J	.
=24	=24	=24
4DD/	8dd\L	.
.	8ccn\J	.
4c 4F#\	4a\	.
4D\	4b\	.
=25	=25	=25
!	!LO:TX:t=P:problem=mixed beam	!
4GG\	8.g/L	p
.	16ddJk 16d\	.
*clefG2	*	*
2cc#X 2c#X\	2b 2g\	.
*clefF4	*	*
=26	=26	=26
4GG\	8.g\L	.
.	16ddJk 16d\	.
*clefG2	*	*
2ee-X 2e-X\	2b 2g\	.
*clefF4	*	*
=27	=27	=27
!	!LO:N:vis=8	!
4GG\	8.g\L	.
.	16ddJk 16d\	.
*clefG2	*	*
4ee-X 4e-X\	8bL 8g\	.
.	8ddJ 8d\	.
4cc#X 4c#X\	8bL 8g\	.
.	8ddJ 8d\	.
*clefF4	*	*
!!LO:LB:g=original
=28	=28	=28
4DD/	8.f#/L	.
.	16d/Jk	.
4D/	4b 4f#/	.
4d\	4a 4f# 4c/	.
=29	=29	=29
4GG\	8.gL 8.B/	.
.	16d/Jk	.
*clefG2	*	*
2bb\	2b 2g/	.
*clefF4	*	*
=30	=30	=30
4EE/	8.gL 8.B/	.
.	16c#X/Jk	.
*clefG2	*	*
2ee 2e\	2b 2g\	.
*clefF4	*	*
=31	=31	=31
4DD/	8.f#L 8.c/	.
.	16d/Jk	.
*clefG2	*	*
4ee 4e\	8bL 8f# 8c\	.
.	8a\J	.
4dd 4d\	8g#XL 8f# 8c\	.
.	8a\J	.
*clefF4	*	*
=32	=32	=32
4GG\	8gL 8B/	.
.	8d/J	.
*clefG2	*	*
4gg\	4b 4g/	.
4r	4bb 4gg\	.
*clefF4	*	*
=33||	=33||	=33||
4GG/	8aaL 8ff#\	.
.	8bbJ 8gg\	p
*clefG2	*	*
4dd#X 4a/	4.ccc 4.aa\	.
4B/	.	.
.	8dd#X 8a\	.
*clefF4	*	*
=34	=34	=34
4C\	8eeL 8gM\	.
.	8dd#XJ 8f#X\	.
*clefG2	*	*
4cc 4e\	4ee 4g\	.
4c\	4ee 4cc\	.
*clefF4	*	*
=35	=35	=35
4AA\	4.ee 4.cc\	.
*clefG2	*	*
4cc 4f#/	.	.
.	8ff#\L	.
*clefF4	*	*
!	!LO:TX:b:t=P:problem=strzałka pod nutami	!
4A#X 4AA#X/	8ee 8cc\	.
.	8ff#\J	.
!!LO:LB:g=original
=36	=36	=36
4B 4BB\	8bm\L	.
.	8a#X\J	.
*clefG2	*	*
4f#X 4d#X/	4b\	.
4g 4e/	4bb 4gg\	.
*clefF4	*	*
=37	=37	=37
4BB\	8aaL 8ff#\	.
.	8bbJ 8gg\	.
*clefG2	*	*
4dd#X 4a\	4.ccc 4.aa\	.
4B/	.	.
.	8dd#X 8a\	.
*clefF4	*	*
=38	=38	=38
4C\	8eeL 8gM\	.
.	8dd#XJ 8f#X\	.
*clefG2	*	*
4cc 4e\	4ee 4g\	.
4c\	4ee 4cc\	.
*clefF4	*	*
=39	=39	=39
4AA\	8eeL 8cc\	.
.	8dd#XJ 8b\	.
*clefG2	*	*
4a 4f#X/	8eeL 8cc\	.
.	8aa\J	.
4d#X 4B/	8ggL 8b\	.
.	8ff#J 8a\	.
*clefF4	*	*
=40	=40	=40
4EE/	8eeL 8g\	.
.	8bJ 8e\	.
2B 2E\	2ee 2g\	.
=41	=41	=41
4GG 4GGG/	8.ffnXL 8.dd\	f
.	16ggJk 16ee\	.
4b 4fn\	4.aa 4.ff\	.
4G\	.	.
.	8b 8fn\	.
=42	=42	=42
4AA 4AAA/	8.ccL 8.e\	.
.	16bJk 16d#X\	.
4a 4c\	4cc 4e\	.
4A\	4cc 4a\	.
=43	=43	=43
4F# 4FF#\	4.cc 4.a\	.
4a 4d\	.	.
.	8dd\L	.
4F#X 4FF#X\	8cc 8a\	.
.	8dd\J	.
=44	=44	=44
4G 4GG\	8.gM\L	.
.	16f#X\Jk	.
4d#X 4B\	4g\	.
4e 4c\	4gg 4ee\	.
!!LO:LB:g=original
=45	=45	=45
4GG 4GGG/	8.ffnL 8.dd\	.
.	16ggJk 16ee\	.
4b 4fn\	4.aa 4.ff\	.
4G\	.	.
.	8b 8fny\	.
=46	=46	=46
4AA 4AAA/	8.ccL 8.e\	.
.	16bJk 16d#X\	.
4a 4c\	4cc 4e\	.
4A\	4cc 4a\	.
=47	=47	=47
4BB 4BBB/	8bL 8g\	.
!	!LO:TX:t=dim.:problem=dynamics with extention lines	!LO:HP:t=dim.:dur=3qe:ext=ct
.	.	>
.	8a#XJ 8f#X\	.
4e 4B\	8bL 8g\	.
.	8gg\J	.
4d#X 4B\	8bbL 8gg 8b 8a#\	.
.	8ff#X\J	.
=48	=48	=48
4EE/	8eeL 8g\	.
.	8bJ 8e\	.
2b 2e\	2ee 2g\	]
=49||	=49||	=49||
4GG/	8.g\L	.
!	!	!LO:DY:rj
.	16b\Jk	p
*clefG2	*	*
4b 4g\	4dd\	.
.	32qqee/	.
4b 4g 4f#\	8dd\L	.
.	8cc#X\J	.
=50	=50	=50
4b 4g 4fn\	8.dd\L	.
.	16b\Jk	.
4b 4g 4e\	4g\	.
4b 4g 4e-X\	4gg\	.
=51	=51	=51
4b 4g 4d\	8.g\L	.
.	16b\Jk	.
4b-X 4g 4d\	4dd\	.
.	32qqee/	.
4a 4g 4d\	8dd\L	.
.	8cc#X\J	.
*clefF4	*	*
=52	=52	=52
4D\	8.dd\L	.
.	16ccn\Jk	.
4f#X 4c\	4a\	.
4F#\	4b\	.
!!LO:PB:g=original
=53	=53	=53
8GL 8GG/	8g\L	ff
8F#J 8FF#/	8f#\J	.
4D 4DD/	4d/	.
4E 4EE/	4e/	.
=54	=54	=54
2BB 2BBB/	2B/	.
4E 4EE/	4e/	.
=55	=55	=55
8DL 8DD/	8d/L	.
8C#XJ 8CC#X/	8c#X/J	.
4BB 4BBB/	4B/	.
4AA 4AAA/	4A/	.
=56	=56	=56
4D 4DD/	2d/	.
*clefG2	*	*
4cc 4f#\	.	.
4r	4dd\	.
*clefF4	*	*
=57	=57	=57
4GG\	8.g\L	p
.	16b\Jk	.
*clefG2	*	*
4b 4g\	4dd\	.
.	32qqee/	.
4b 4g 4f#\	8dd\L	.
.	8cc#X\J	.
=58	=58	=58
4b 4g 4fn\	8.dd\L	.
.	16b\Jk	.
4b 4g 4e\	4g\	.
4b 4g 4e-X\	4gg\	.
=59	=59	=59
4b 4g 4d\	8.g\L	.
.	16b\Jk	.
4b-X 4g 4d\	4dd\	.
.	32qqee/	.
4a 4g 4d\	8dd\L	.
.	8cc#X\J	.
*clefF4	*	*
=60	=60	=60
4D\	8.dd\L	.
.	16ccn\Jk	.
4f# 4c\	4a\	.
4F#\	4b\	.
=61	=61	=61
8GL 8GG/	8g/L	.
!	!	!LO:DY:rj
8F#J 8FF#/	8f#/J	ff
4D 4DD/	4d/	.
4E 4EE/	4e/	.
!!LO:LB:g=original
=62	=62	=62
2BB 2BBB/	2B/	.
8EL 8EE/	8e/L	.
8DJ 8DD/	8d/J	.
=63	=63	=63
8CL 8CC/	8c/L	.
8BBJ 8BBB/	8B/J	.
4AA 4AAA/	4A/	.
4BB 4BBB/	4B/	.
=64	=64	=64
4GG 4GGG/	4G/	.
4B 4G\	4g 4d/	.
4r	4r	.
*kcancel	*kcancel	*
=65||	=65||	=65||
*k[b-e-a-]	*k[b-e-a-]	*
8.B-L 8.E-\	8.gL 8.e-/	p
16B-Jk 16E-\	16gJk 16e-/	.
4B- 4E-\	4g 4e-/	.
4B- 4G\	4b- 4d/	.
=66	=66	=66
!	!LO:TUP:a:problem=klamra łukowa	!
4B- 4F\	12anL 12e-\	.
.	12b-\	.
.	12cc\J	.
4B- 4BB-\	4b- 4d/	.
8BB-\L	4d 4A-/	.
8BBn\J	.	.
=67	=67	=67
8.C\L	8.e-L 8.G/	.
16GJk 16C\	16e-Jk 16c/	.
4G 4C\	4e- 4c/	.
4G 4E-\	4g 4B-/	.
=68	=68	=68
!	!LO:TUP:a:problem=klamra łukowa	!
4G 4D\	12f#XL 12c\	.
.	12g\	.
.	12a-\J	.
4G 4GG\	4g 4Bn\	.
8GG/L	4B 4F/	.
8AA-/J	.	.
=69	=69	=69
*^	*	*
8.AA-\L	2ryy	8.c<L 8.E-</	.
16D\Jk	.	16c<Jk 16A-</	.
4E-\	.	4c< 4A-</	.
4EE-/	4EE-	4d-<X 4G</	.
*v	*v	*	*
!!LO:LB:g=original
=70	=70	=70
8.AA-\L	8.c<L 8.A-</	.
16D\Jk	16f</Jk	.
4E-\	8e-</L	.
.	8d</J	.
4EE-\	4c< 4G</	.
=71	=71	=71
8.AA-\L	8.c<L 8.A-</	.
16D\Jk	16c<Jk 16A-</	.
4E-\	4c< 4A-</	.
4EE-\	4d-<X 4G</	.
=72	=72	=72
8.AA-\L	8.c<L 8.A-</	.
16D\Jk	16f</Jk	.
4E-\	8e-</L	.
.	8d</J	.
4EE-\	4c< 4G</	.
=73	=73	=73
8.GG\L	8.Bn<L 8.G</	.
16C#X\Jk	16B<Jk 16G</	.
4D\	4B< 4G</	.
4DD\	4c< 4F#X</	.
=74	=74	=74
8.GG\L	8.Bn<L 8.G</	.
16C#X\Jk	16e-</Jk	.
4D\	8d</L	.
.	8B</J	.
4DD\	4g</	.
=75	=75	=75
8.GG\L	8.Bn<L 8.G</	.
16C#X\Jk	16B<Jk 16G</	.
4D\	4B< 4G</	.
4DD\	4c< 4F#X</	.
=76	=76	=76
!	!	!LO:HP:b
8.GG\L	8.Bn<L 8.G</	<
16C#X\Jk	16e-</Jk	.
4D\	8d</L	.
.	8B</J	.
4E-\	4g< 4d-<X 4B-<X/	[[
!!LO:LB:g=original
=77	=77	=77
!LO:TX:t=P:problem=mixed beam	!	!LO:DY:rj
8AAA-/L	8gL 8c\	f
8A-\J	8f\J	.
8G\L	8g\L	.
.	32qqb-/	.
8F\J	8a-\J	.
8G\L	8e-L 8c\	.
8A-\J	8f\J	.
=78	=78	=78
8.GG/L	8gL 8e- 8c\	.
.	8f#X\J	.
16D/Jk	.	.
8.E-/L	4.g 4.e- 4.c\	<
16FF#X/Jk	.	.
4GG/	.	.
.	8g\	.
=79	=79	=79
8.GGL 8.GGG/	8.gL 8.d 8.Bn/	.
16C#X/Jk	16f#X/Jk	.
8.D/L	4.g 4.d 4.B/	.
16FF#X/Jk	.	.
4GG/	.	.
.	8g/	.
=80	=80	=80
!LO:TX:t=P:problem=mixed beam	!	!
8.CCL 8.CCC/	8.gL 8.c 8.B-X/	.
16D#X\Jk	16f#X/Jk	.
!LO:TX:t=P:problem=mixed beam	!	!
8.En\L	4.g 4.c 4.B-/	.
16EEEny/Jk	.	.
4CC/	.	.
.	8g/	[[
=81	=81	=81
!LO:TX:t=P:problem=mixed beam	!	!
8AAA-/L	8gL 8c/	.
!	!LO:TX:t=cresc.:problem=dynamics with extention lines	!LO:HP:t=cresc.:dur=4he:ext=cd
8A-\J	8f/J	<
8G\L	8g/L	.
.	32qqb-/	.
8F\J	8a-/J	.
8G\L	8e-L 8c/	.
8A-\J	8f/J	.
=82	=82	=82
8.GG\L	8gL 8e- 8c\	.
.	8f#X\J	.
16D\Jk	.	.
8.E-\L	4.g 4.e- 4.c\	.
16FF#X\Jk	.	.
4GG\	.	.
.	8g\	.
=83	=83	=83
!LO:TX:t=P:problem=mixed beam	!	!
8.DD/L	8.ddL 8.an 8.d 8.c\	.
16E#X\Jk	16g#X\Jk	.
!LO:TX:t=P:problem=mixed beam	!	!
8.F#X\L	4.dd 4.a 4.d 4.c\	.
16CC#X/Jk	.	.
4DD/	.	.
.	8dd 8a 8d 8c\	[
!!LO:LB:g=original
=84	=84	=84
!LO:TX:t=P:problem=mixed beam	!	!LO:DY:rj
8.GGG/L	2gg 2dd 2g 2B-\	ff
16F#XJk 16FF#X\	.	.
8.GL 8.GG\	.	.
16f#XJk 16F#\	.	.
4g 4G\	4r	.
=85	=85	=85
8.B-L 8.E-\	8.gL 8.e-/	p
16B-Jk 16E-\	16gJk 16e-/	.
4B- 4E-\	4g 4e-/	.
4B- 4G\	4b- 4d/	.
=86	=86	=86
!	!LO:TUP:a:problem=klamra łukowa	!
4B- 4F\	12anL 12e-/	.
.	12b-/	.
.	12cc/J	.
4B- 4BB-\	4b- 4d/	.
8BB-\L	4d 4A-/	.
8BBn\J	.	.
=87	=87	=87
8.C\L	8.e-L 8.G/	.
16GJk 16C\	16e-Jk 16c/	.
4G 4C\	4e- 4c/	.
4G 4E-\	4g 4B-/	.
=88	=88	=88
!	!LO:TUP:a:problem=klamra łukowa	!
4G 4D\	12f#XL 12c\	.
.	12g\	.
.	12a-\J	.
4G 4GG\	4g 4Bn\	.
8GG\L	4Bn< 4F</	.
8AA-\J	.	.
=89	=89	=89
8.AA-\L	8.c<L 8.E-</	.
16D\Jk	16c<Jk 16A-</	.
4E-\	4c< 4A-</	.
4EE-\	4d-X< 4G</	.
=90	=90	=90
8.AA-\L	8.c<L 8.A-</	.
16D\Jk	16f</Jk	.
4E-\	8e-</L	.
.	8d</J	.
4EE-\	4c< 4G</	.
=91	=91	=91
8.AA-\L	8.c<L 8.A-</	.
16D\Jk	16c<Jk 16A-</	.
4E-\	4c< 4A-</	.
4EE-\	4d-X< 4G</	.
!!LO:LB:g=original
=92	=92	=92
!	!	!LO:HP:b
8.AA-\L	8.c<L 8.A-</	<
16D\Jk	16f</Jk	.
4E-\	8e-</L	.
.	8d</J	.
4EE-\	4g< 4c#X< 4G</	[[
=93	=93	=93
8.DD\L	8.f#XL 8.d\	.
.	.	<
16G#X\Jk	16f#Jk 16d\	.
4An\	4f# 4d\	.
4AAn\	4g 4c#X\	.
=94	=94	=94
8.D\L	8.f#XL 8.d\	.
16G#X\Jk	16b-\Jk	.
4An\	8an\L	.
.	8f#X\J	.
4AAn\	4dd\	.
=95	=95	=95
8.DD\L	8.f#XL 8.d\	.
16G#X\Jk	16f#Jk 16d\	.
4An\	4f# 4d\	.
4AAn\	4g 4c#X\	.
=96	=96	=96
8.D\L	8f#XL 8d\	.
.	8b-\J	.
16G#X\Jk	.	.
4An\	8an\L	.
.	8f#X\J	.
4Bn\	4dd 4a-X 4fn\	[[
=97	=97	=97
!LO:TX:t=P:problem=mixed beam	!	!
8EE-/L	8ddL 8g\	.
!	!	!LO:DY:rj
8e-\J	8cc\J	f
8d\L	8dd\L	.
.	32qqff/	.
8c\J	8ee-\J	.
8d\L	8b-L 8g\	.
8e-\J	8cc\J	.
=98	=98	=98
8D\L	8ddL 8b- 8g\	<
8An\J	8cc#X\J	.
8.B-\L	4.dd 4.b- 4.g\	.
16C#X\Jk	.	.
4D\	.	.
.	8dd\	[[
!!LO:PB:g=original
=99	=99	=99
!LO:TX:t=P:problem=mixed beam	!	!
8.DD/L	8.ddL 8.an 8.f#X\	<
16G#X\Jk	16cc#X\Jk	.
!LO:SIC:v:s=8.An	!	!
!LO:N:vis=8	!	!
8.A-\L	4.dd 4.a 4.f#\	.
!LO:TX:t=P:problem=skreślona nuta	!	!
16C#X\Jk	.	.
4D\	.	.
.	8dd\	.
=100	=100	=100
!LO:TX:t=P:problem=mixed beam	!	!
8.GGG/L	8.ddL 8.bn 8.g 8.fn\	.
16A#X\Jk	16cc#X\Jk	.
!LO:TX:t=P:problem=mixed beam	!	!
8.Bn\L	4.dd 4.g 4.f\	.
16DD/Jk	.	.
4GG/	.	.
.	8dd\	[[
=101	=101	=101
8EE-\L	8ddL 8g\	.
!	!	!LO:HP:t=cresc. molto:dur=6e
8e-\J	8cc\J	<
8d\L	8dd\L	.
.	32qqff/	.
8c\J	8ee-\J	.
8d\L	8b-L 8g\	.
8e-\J	8cc\J	.
=102	=102	=102
!LO:TX:t=P:problem=mixed beam	!	!
8DD/L	8ddL 8b- 8g\	.
8A-\J	8cc#X\J	.
!LO:N:vis=8	!	!
8.B-\L	4.dd 4.b- 4.g\	.
16C#X\Jk	.	.
4D\	.	.
.	8dd\	.
=103	=103	=103
!LO:TX:t=P:problem=mixed beam	!	!
!LO:N:vis=8	!	!
8.AAA-/L	8.aanL 8.een 8.an 8.g\	.
16Bn\Jk	16dd#X\Jk	.
!LO:TX:t=P:problem=mixed beam	!	!
!LO:N:vis=8	!	!
8.c\L	4.aa 4.ee 4.a 4.g\	.
16GG#X/Jk	.	.
!LO:SIC:v:s=4AAn	!	!
4AA-/	.	.
.	8aa 8ee 8a 8g\	.
=104	=104	=104
!LO:TX:t=P:problem=mixed beam	!	!
8.DDD/L	2ddd 2aan 2dd 2f#X\	.
16c#XJk 16C#X\	.	.
8.dL 8.D\	.	.
16cc#XJk 16c#\	.	.
4dd 4d\	4r	.
=105||	=105||	=105||
*k[f#]	*k[f#]	*
!	!LO:TX:t=P:problem=oznaczenie tonacji przed kreską taktową	!
4GG/	8.g\L	.
!	!	!LO:DY:rj
.	16b\Jk	p
*clefG2	*	*
4b 4g\	4dd\	.
.	32qqee/	.
4b 4g 4f#\	8dd\L	.
.	8cc#X\J	.
!!LO:LB:g=original
=106	=106	=106
4b 4g 4fn\	8.dd\L	.
.	16b\Jk	.
4b 4g 4e\	4g\	.
4b 4g 4e-X\	4gg\	.
=107	=107	=107
4b 4g 4d\	8.g\L	.
.	16b\Jk	.
4b-X 4g 4d\	4dd\	.
.	32qqee/	.
4a 4g 4d\	8dd\L	.
.	8cc#X\J	.
*clefF4	*	*
=108	=108	=108
4D\	8.dd\L	.
.	16ccn\Jk	.
4f# 4c\	4a\	.
4F#\	4b\	.
=109	=109	=109
8GL 8GG/	8g/L	ff
8F#J 8FF#/	8f#/J	.
4D 4DD/	4d/	.
4E 4EE/	4e/	.
=110	=110	=110
2BB 2BBB/	2B/	.
4E 4EE/	4e/	.
=111	=111	=111
8DL 8DD/	8d/L	.
8C#XJ 8CC#X/	8c#X/J	.
4BB 4BBB/	4B/	.
4AA 4AAA/	4A/	.
=112	=112	=112
4D 4DD/	2d/	.
*clefG2	*	*
4cc 4f#\	.	.
4r	4dd\	.
*clefF4	*	*
=113	=113	=113
4GG\	8.g/L	p
.	16b/Jk	.
*clefG2	*	*
4b 4g\	4dd\	.
.	32qqee/	.
4b 4g 4f#\	8dd\L	.
.	8cc#X\J	.
=114	=114	=114
!	!LO:N:vis=8	!
4b 4g 4fn\	8.dd\L	.
.	16b\Jk	.
4b 4g 4e\	4g\	.
4b 4g 4e-X\	4gg\	.
!!LO:LB:g=original
=115	=115	=115
4b 4g 4d/	8.g\L	.
.	16b\Jk	.
4b-X 4g 4d/	4dd\	.
.	32qqee/	.
4a 4g 4d/	8dd\L	.
.	8cc#X\J	.
*clefF4	*	*
=116	=116	=116
4D\	8.dd\L	.
.	16ccn\Jk	.
4f# 4c\	4a\	.
4F#\	4b\	.
=117	=117	=117
8GL 8GG/	8g/L	ff
8F#J 8FF#/	8f#/J	.
4D 4DD/	4d/	.
4E 4EE/	4e/	.
=118	=118	=118
2BB 2BBB/	2B/	.
8EL 8EE/	8e/L	.
8DJ 8DD/	8d/J	.
=119	=119	=119
8CL 8CC/	8c/L	.
8BBJ 8BBB/	8B/J	.
4AA 4AAA/	4A/	.
4BB 4BBB/	4B/	.
=120	=120	=120
4GG 4GGG/	4G/	.
4b 4d 4G\	4gg 4dd 4g\	.
4r	4d\	.
=121	=121	=121
4GG 4GGG/	8.g\L	ff
!	!LO:N:vis=8	!
.	16b\Jk	.
4g 4d 4B 4G\	4dd\	.
.	32qqee/	.
4f# 4d 4B 4G 4F#\	8dd\L	.
.	8cc#X\J	.
=122	=122	=122
4fn 4d 4B 4G 4Fn\	8dd\L	.
.	8b\J	.
4e 4B 4G 4E\	4g\	.
4e-X 4B 4G 4E-X\	4gg\	.
!!LO:LB:g=original
=123	=123	=123
4d 4B 4G 4D\	8g\L	.
.	8b\J	.
4d 4B-X 4G 4D\	4dd\	.
.	32qqee/	.
4d 4A 4G 4D\	8dd\L	.
.	8cc#X\J	.
=124	=124	=124
4DD/	8dd\L	.
.	8ccn\J	.
4c 4F#\	4a\	.
4D\	4b\	.
=125	=125	=125
4GG 4GGG/	8g\L	.
.	8b\J	.
4g 4d 4B 4G\	4dd\	.
.	32qqee/	.
4f# 4d 4B 4G 4F#\	8dd\L	.
.	8cc#X\J	.
=126	=126	=126
4fn 4d 4B 4G 4Fn\	8dd\L	.
.	8b\J	.
4e 4B 4G 4E\	4g\	.
4e-X 4B 4G 4E-X\	4gg\	.
=127	=127	=127
4d 4B 4G 4D\	8g\L	.
.	8b\J	.
4d 4B-X 4G 4D\	4dd\	.
.	32qqee/	.
4d 4A 4G 4D\	8dd\L	.
.	8cc#X\J	.
=128	=128	=128
4DD/	8dd\L	.
.	8ccn\J	.
4c 4F#\	4a\	.
4D\	4b\	.
=129	=129	=129
!	!LO:TX:t=P:problem=mixed beam	!
4GG\	8.g/L	p
.	16ddJk 16d\	.
*clefG2	*	*
2cc#X 2c#X/	2b 2g/	.
*clefF4	*	*
=130	=130	=130
4GG\	8.g/L	.
.	16ddJk 16d/	.
*clefG2	*	*
2ee-X 2e-X/	2b 2g/	.
*clefF4	*	*
!!LO:LB:g=original
=131	=131	=131
4GG\	8.g\L	.
.	16ddJk 16d\	.
*clefG2	*	*
4ee-X 4e-X\	8bL 8g\	.
.	8ddJ 8d\	.
4cc#X 4c#X\	8bL 8g\	.
.	8ddJ 8d\	.
*clefF4	*	*
=132	=132	=132
4DD\	8.f#/L	.
.	16d/Jk	.
4D\	4b 4f#/	.
4d\	4a 4f# 4c/	.
=133	=133	=133
4GG\	8.gL 8.B/	.
.	16d/Jk	.
*clefG2	*	*
2bb\	2b 2g/	<
*clefF4	*	*
=134	=134	=134
4EE\	8.gL 8.B/	.
.	16c#X/Jk	.
*clefG2	*	*
2ee 2e\	2b 2g/	.
*clefF4	*	*
=135	=135	=135
4DD\	8.gL 8.B/	.
.	16d/Jk	.
*clefG2	*	*
2bb\	2b 2g/	.
*clefF4	*	*
=136	=136	=136
4CC#X/	8.gL 8.B/	.
.	16e/Jk	.
*clefG2	*	*
2ee\	2b 2g/	[
!	!LO:TX:t=rallentando al fine è diminuendo:problem=dynamics with extention lines	!LO:HP:t=rallentando al fine è diminuendo:dur=24h:ext=cd
.	.	>
*clefF4	*	*
=137	=137	=137
4DD/	8.f#L 8.c/	.
.	16d/Jk	.
*clefG2	*	*
4ee 4e\	8bL 8f# 8c/	.
.	8a/J	.
4dd 4d\	8g#XL 8f# 8c/	.
.	8a/J	.
*clefF4	*	*
=138	=138	=138
4GG\	8.gL 8.B/	.
.	16d/Jk	.
*clefG2	*	*
4gg\	4b 4g/	.
4cc#X 4c#X\	4b 4g 4B/	.
*clefF4	*	*
!!LO:LB:g=original
=139	=139	=139
4DD/	8.f#L 8.c/	.
.	16d/Jk	.
*clefG2	*	*
4ee 4e\	8bL 8f# 8c/	.
.	8a/J	.
4dd 4d\	8g#XL 8f# 8c/	.
.	8a/J	.
*clefF4	*	*
=140	=140	=140
4GG\	8.gL 8.B/	.
.	16d/Jk	.
*clefG2	*	*
4bb\	4b 4g/	.
4cc#X 4c#X\	4b 4g 4B/	.
*clefF4	*	*
=141	=141	=141
4GG\	8.gL 8.B/	.
.	16d/Jk	.
*clefG2	*	*
4gg\	4b 4g/	.
4ee-X 4e-X\	4b 4g 4B/	.
*clefF4	*	*
=142	=142	=142
4GG\	8.gL 8.B/	.
.	16d/Jk	.
*clefG2	*	*
4bb\	4b 4g/	.
4cc#X 4c#X\	4b 4g 4B/	.
*clefF4	*	*
=143	=143	=143
4GG\	8.gL 8.B/	.
.	16d/Jk	.
*clefG2	*	*
2gg\	2b 2g/	]
*clefF4	*	*
=144	=144	=144
.	32qqg/LLL	.
.	32qqa/	.
.	32qqb/JJJ	.
8.G\L	2dd 2g 2B\	.
16DJk 16GG\	.	.
4GGG/	.	.
!	!LO:TX:b:t=Fine.	!
4r	4r	.
==	==	==
*-	*-	*-
!!!system-decoration: {(s1,s2)}
!!!RDF**kern: > = above
!!!RDF**kern: < = below
!!!RDF**dynam: p = "p."
!!!RDF**dynam: ff = "ff."
!!!RDF**dynam: pp = "pp."
!!!RDF**dynam: f = "f."
!!!ENC: Andrzej Kubiczek
!!!END: 2021-05-20
!!!ENC: Andrzej Gręziak
!!!END: 2021-04-30
!!!YEC: Copyright 2022 Narodowy Instytut Fryderyka Chopina (https://polishscores.org)
!!!YEM: License CC-BY-4.0 (https://creativecommons.org/licenses/by/4.0)
